img/Quizzes.svg

<svg width="146" height="146" viewBox="0 0 146 146" fill="none" xmlns="http://www.w3.org/2000/svg">
<mask id="mask0" mask-type="alpha" maskUnits="userSpaceOnUse" x="0" y="0" width="146" height="146">
<rect width="146" height="146" rx="73" fill="white"/>
</mask>
<g mask="url(#mask0)">
<path d="M69 143.5C69 146 66.076 145.287 63.5 145C61.3197 144.757 59.002 144.807 59 142.5C58.9955 137.296 68.9947 138.316 69 143.5Z" fill="#75C738"/>
<path d="M106.277 144.755C106.277 151.134 96.6986 151.134 96.6986 144.755C96.6986 138.369 106.277 138.369 106.277 144.755Z" fill="#93D65E"/>
<path d="M87 142.5C89 145.5 78.2892 146.483 78 144C77.4302 139.107 85.0001 139.5 87 142.5Z" fill="#75C738"/>
<path d="M50.1931 144.755C50.1931 151.134 40.6144 151.134 40.6144 144.755C40.6144 138.369 50.1931 138.369 50.1931 144.755Z" fill="#93D65E"/>
<path d="M58.5813 135.176C58.6719 139.731 51.0448 139.518 50.9198 135.176C50.723 130.538 58.3495 130.621 58.5813 135.176Z" fill="#93D65E"/>
<path d="M77.2738 135.175C77.3798 139.78 69.7535 139.643 69.6187 135.175C69.5931 130.322 77.2507 130.298 77.2738 135.175Z" fill="#93D65E"/>
<path d="M95.973 135.176C95.7446 138.249 88.1504 138.588 88.3114 135.176C88.368 130.358 96.049 130.456 95.973 135.176Z" fill="#93D65E"/>
<path d="M39.8821 135.175C40.2642 137.851 37.5001 136.5 37.5001 136.5C37.5001 136.5 31.5001 133.5 32.0001 131C33.5001 127 39.5001 132.5 39.8821 135.175Z" fill="#93D65E"/>
<path d="M113.073 133.5C111.929 134.389 107 138.832 107 135C107 131.395 111 131 112 131.5C113.5 132 113.819 132.92 113.073 133.5Z" fill="#93D65E"/>
<path d="M48.4663 127.521C48.4663 131.604 43 131 42.3423 127.521C42.3423 123.438 48 123.5 48.4663 127.521Z" fill="#93D65E"/>
<path d="M67.1653 127.521C67.3308 131.042 61.0347 131.604 61.0347 127.521C61.0347 124 66.9999 124 67.1653 127.521Z" fill="#93D65E"/>
<path d="M85.8579 127.521C85.5 131 78.9679 131.542 79.7339 127.521C80.4999 123.5 85.9999 124 85.8579 127.521Z" fill="#93D65E"/>
<path d="M104.557 127.521C104.557 131 98.5 132.083 98.5 128C98.5 123.917 104.557 123.438 104.557 127.521Z" fill="#93D65E"/>
<path d="M29.772 127.521C29.772 130.361 27.806 129.611 26 128.5C25.2096 128.014 23.5 126.243 23.5 125C23.5 120.917 29.772 123.438 29.772 127.521Z" fill="#93D65E"/>
<path d="M122.5 125.5C122.944 126.387 119 129.5 118 129.5C117 129.5 116.962 128.352 117.119 127.521C117.5 125.5 121.5 123.5 122.5 125.5Z" fill="#93D65E"/>
<path d="M38.5069 121.389C38.5069 124.66 33.6063 124.66 33.6063 121.389C33.6063 118.124 38.5069 118.124 38.5069 121.389Z" fill="#FAD95A"/>
<path d="M57.2061 121.389C57.2061 124.66 52.3055 124.66 52.3055 121.389C52.3055 118.124 57.2061 118.124 57.2061 121.389Z" fill="#93D65E"/>
<path d="M75.9003 121.389C75.9003 124.66 70.9998 124.66 70.9998 121.389C70.9998 118.124 75.9003 118.124 75.9003 121.389Z" fill="#93D65E"/>
<path d="M113.292 121.389C113.292 124.66 108.385 124.66 108.385 121.389C108.385 118.124 113.292 118.124 113.292 121.389Z" fill="#93D65E"/>
<path d="M57.2061 121.389C57.2061 124.66 52.3055 124.66 52.3055 121.389C52.3055 118.124 57.2061 118.124 57.2061 121.389Z" fill="#FAD95A"/>
<path d="M75.9003 121.389C75.9003 124.66 70.9998 124.66 70.9998 121.389C70.9998 118.124 75.9003 118.124 75.9003 121.389Z" fill="#93D65E"/>
<path d="M113.292 121.389C113.292 124.66 108.385 124.66 108.385 121.389C108.385 118.124 113.292 118.124 113.292 121.389Z" fill="#93D65E"/>
<path d="M75.9003 121.389C75.9003 124.66 70.9998 124.66 70.9998 121.389C70.9998 118.124 75.9003 118.124 75.9003 121.389Z" fill="#FAD95A"/>
<path d="M19.8144 121.389C19.5 122.5 16 119.5 16 117.5C16 115.263 19.8144 118.124 19.8144 121.389Z" fill="#FAD95A"/>
<path d="M113.292 121.389C113.292 124.66 108.385 124.66 108.385 121.389C108.385 118.124 113.292 118.124 113.292 121.389Z" fill="#93D65E"/>
<path d="M94.5928 121.389C94.5928 124.66 90 124.5 89.6923 121.389C89.6923 118.124 94 118 94.5928 121.389Z" fill="#FAD95A"/>
<path d="M113.292 121.389C113.292 124.66 108.385 124.66 108.385 121.389C108.385 118.124 113.292 118.124 113.292 121.389Z" fill="#FAD95A"/>
<path d="M129.5 119C129.5 119.5 126.5 121.5 126 121C125.5 120.5 129.5 117 129.5 119Z" fill="#FAD95A"/>
<path d="M28.6666 116.49C28.6666 119.107 24.7408 119.107 24.7408 116.49C24.7408 113.879 28.6666 113.879 28.6666 116.49Z" fill="#ACEB7C"/>
<path d="M47.3658 116.49C47.3658 119.107 43.4401 119.107 43.4401 116.49C43.4401 113.879 47.3658 113.879 47.3658 116.49Z" fill="#93D65E"/>
<path d="M66.06 116.49C66.06 119.107 62.1343 119.107 62.1343 116.49C62.1343 113.879 66.06 113.879 66.06 116.49Z" fill="#93D65E"/>
<path d="M84.7524 116.49C84.7524 119.107 80.8334 119.107 80.8334 116.49C80.8334 113.879 84.7524 113.879 84.7524 116.49Z" fill="#93D65E"/>
<path d="M103.452 116.49C103.452 119.107 99.5259 119.107 99.5259 116.49C99.5259 113.879 103.452 113.879 103.452 116.49Z" fill="#93D65E"/>
<path d="M122.144 116.49C122.144 119.107 118.218 119.107 118.218 116.49C118.218 113.879 122.144 113.879 122.144 116.49Z" fill="#93D65E"/>
<path d="M47.3658 116.49C47.3658 119.107 43.4401 119.107 43.4401 116.49C43.4401 113.879 47.3658 113.879 47.3658 116.49Z" fill="#ACEB7C"/>
<path d="M66.06 116.49C66.06 119.107 62.1343 119.107 62.1343 116.49C62.1343 113.879 66.06 113.879 66.06 116.49Z" fill="#93D65E"/>
<path d="M84.7524 116.49C84.7524 119.107 80.8334 119.107 80.8334 116.49C80.8334 113.879 84.7524 113.879 84.7524 116.49Z" fill="#93D65E"/>
<path d="M103.452 116.49C103.452 119.107 99.5259 119.107 99.5259 116.49C99.5259 113.879 103.452 113.879 103.452 116.49Z" fill="#93D65E"/>
<path d="M122.144 116.49C122.144 119.107 118.218 119.107 118.218 116.49C118.218 113.879 122.144 113.879 122.144 116.49Z" fill="#93D65E"/>
<path d="M140.837 116.49C140.837 119.107 136.918 119.107 136.918 116.49C136.918 113.879 140.837 113.879 140.837 116.49Z" fill="#93D65E"/>
<path d="M66.06 116.49C66.06 119.107 62.1343 119.107 62.1343 116.49C62.1343 113.879 66.06 113.879 66.06 116.49Z" fill="#ACEB7C"/>
<path d="M9.9741 116.49C9.9741 119.107 6.04834 119.107 6.04834 116.49C6.04834 113.879 9.9741 113.879 9.9741 116.49Z" fill="#ACEB7C"/>
<path d="M84.7524 116.49C84.7524 119.107 80.8334 119.107 80.8334 116.49C80.8334 113.879 84.7524 113.879 84.7524 116.49Z" fill="#93D65E"/>
<path d="M103.452 116.49C103.452 119.107 99.5259 119.107 99.5259 116.49C99.5259 113.879 103.452 113.879 103.452 116.49Z" fill="#93D65E"/>
<path d="M122.144 116.49C122.144 119.107 118.218 119.107 118.218 116.49C118.218 113.879 122.144 113.879 122.144 116.49Z" fill="#93D65E"/>
<path d="M140.837 116.49C140.837 119.107 136.918 119.107 136.918 116.49C136.918 113.879 140.837 113.879 140.837 116.49Z" fill="#93D65E"/>
<path d="M84.7524 116.49C84.7524 119.107 80.8334 119.107 80.8334 116.49C80.8334 113.879 84.7524 113.879 84.7524 116.49Z" fill="#ACEB7C"/>
<path d="M103.452 116.49C103.452 119.107 99.5259 119.107 99.5259 116.49C99.5259 113.879 103.452 113.879 103.452 116.49Z" fill="#ACEB7C"/>
<path d="M122.144 116.49C122.144 119.107 118.218 119.107 118.218 116.49C118.218 113.879 122.144 113.879 122.144 116.49Z" fill="#ACEB7C"/>
<path d="M140.837 116.49C140.837 119.107 136.918 119.107 136.918 116.49C136.918 113.879 140.837 113.879 140.837 116.49Z" fill="#ACEB7C"/>
<path d="M18.8329 112.57C18.8329 114.664 15.6989 114.664 15.6989 112.57C15.6989 110.477 18.8329 110.477 18.8329 112.57Z" fill="#CCF0AD"/>
<path d="M37.5321 112.57C37.5321 114.664 34.3916 114.664 34.3916 112.57C34.3916 110.477 37.5321 110.477 37.5321 112.57Z" fill="#93D65E"/>
<path d="M56.2246 112.57C56.2246 114.664 53.0906 114.664 53.0906 112.57C53.0906 110.477 56.2246 110.477 56.2246 112.57Z" fill="#93D65E"/>
<path d="M74.9255 112.57C74.9255 114.664 71.7849 114.664 71.7849 112.57C71.7849 110.477 74.9255 110.477 74.9255 112.57Z" fill="#93D65E"/>
<path d="M93.6181 112.57C93.6181 114.664 90.4775 114.664 90.4775 112.57C90.4775 110.477 93.6181 110.477 93.6181 112.57Z" fill="#93D65E"/>
<path d="M112.317 112.57C112.317 114.664 109.177 114.664 109.177 112.57C109.177 110.477 112.317 110.477 112.317 112.57Z" fill="#93D65E"/>
<path d="M37.5321 112.57C37.5321 114.664 34.3916 114.664 34.3916 112.57C34.3916 110.477 37.5321 110.477 37.5321 112.57Z" fill="#CCF0AD"/>
<path d="M56.2246 112.57C56.2246 114.664 53.0906 114.664 53.0906 112.57C53.0906 110.477 56.2246 110.477 56.2246 112.57Z" fill="#93D65E"/>
<path d="M74.9255 112.57C74.9255 114.664 71.7849 114.664 71.7849 112.57C71.7849 110.477 74.9255 110.477 74.9255 112.57Z" fill="#93D65E"/>
<path d="M93.6181 112.57C93.6181 114.664 90.4775 114.664 90.4775 112.57C90.4775 110.477 93.6181 110.477 93.6181 112.57Z" fill="#93D65E"/>
<path d="M112.317 112.57C112.317 114.664 109.177 114.664 109.177 112.57C109.177 110.477 112.317 110.477 112.317 112.57Z" fill="#93D65E"/>
<path d="M131.01 112.57C131.01 114.664 127.869 114.664 127.869 112.57C127.869 110.477 131.01 110.477 131.01 112.57Z" fill="#93D65E"/>
<path d="M56.2246 112.57C56.2246 114.664 53.0906 114.664 53.0906 112.57C53.0906 110.477 56.2246 110.477 56.2246 112.57Z" fill="#CCF0AD"/>
<path d="M0.140543 112.57C0.140543 114.664 -3 114.664 -3 112.57C-3 110.477 0.140543 110.477 0.140543 112.57Z" fill="#CCF0AD"/>
<path d="M74.9255 112.57C74.9255 114.664 71.7849 114.664 71.7849 112.57C71.7849 110.477 74.9255 110.477 74.9255 112.57Z" fill="#93D65E"/>
<path d="M93.6181 112.57C93.6181 114.664 90.4775 114.664 90.4775 112.57C90.4775 110.477 93.6181 110.477 93.6181 112.57Z" fill="#93D65E"/>
<path d="M112.317 112.57C112.317 114.664 109.177 114.664 109.177 112.57C109.177 110.477 112.317 110.477 112.317 112.57Z" fill="#93D65E"/>
<path d="M131.01 112.57C131.01 114.664 127.869 114.664 127.869 112.57C127.869 110.477 131.01 110.477 131.01 112.57Z" fill="#93D65E"/>
<path d="M74.9255 112.57C74.9255 114.664 71.7849 114.664 71.7849 112.57C71.7849 110.477 74.9255 110.477 74.9255 112.57Z" fill="#CCF0AD"/>
<path d="M93.6181 112.57C93.6181 114.664 90.4775 114.664 90.4775 112.57C90.4775 110.477 93.6181 110.477 93.6181 112.57Z" fill="#CCF0AD"/>
<path d="M112.317 112.57C112.317 114.664 109.177 114.664 109.177 112.57C109.177 110.477 112.317 110.477 112.317 112.57Z" fill="#CCF0AD"/>
<path d="M131.01 112.57C131.01 114.664 127.869 114.664 127.869 112.57C127.869 110.477 131.01 110.477 131.01 112.57Z" fill="#CCF0AD"/>
</g>
<path fill-rule="evenodd" clip-rule="evenodd" d="M61.6883 32.3501C68.3755 29.394 75.7481 34.808 74.9292 42.0735L71.8729 69.1887C71.7027 70.6984 71.0024 72.0987 69.8965 73.1404L69.8135 73.2186L76.2336 82.1506C77.1139 83.3753 77.0704 85.0366 76.1273 86.2136C75.1841 87.3906 73.5723 87.7952 72.1852 87.203L56.1167 80.3437L49.3619 80.8672C46.4803 81.0905 43.8052 79.3597 42.828 76.6398L34.6632 53.914C32.9831 49.2377 35.2025 44.0581 39.7473 42.0491L61.6883 32.3501Z" fill="#FAEFE6"/>
<path fill-rule="evenodd" clip-rule="evenodd" d="M71.2412 82.3433C63.849 64.2453 82.1444 46.0962 100.354 53.5668C110.607 57.7727 116.179 68.9965 113.231 79.7076C110.017 91.3913 97.9391 98.2567 86.2553 95.0419L85.3822 94.8017L68.5 98C67.0112 98.3393 65.2857 98.1479 64.5815 97.1486C63.8253 96.0758 64.1798 94.7879 65 93.5L71.2412 82.3433Z" fill="#51B816"/>
<path fill-rule="evenodd" clip-rule="evenodd" d="M102.952 69.4667C103.761 70.9637 103.203 72.8329 101.706 73.6417L88.7703 80.6309C87.6155 81.2548 86.2644 81.4087 84.9988 81.0605C83.7609 80.7199 82.6974 79.9243 82.0211 78.8329L79.2991 74.44C78.4029 72.9936 78.8489 71.0946 80.2952 70.1984C81.7416 69.3022 83.6406 69.7481 84.5368 71.1945L86.728 74.7308L98.7774 68.2206C100.274 67.4118 102.144 67.9697 102.952 69.4667Z" fill="white"/>
<path fill-rule="evenodd" clip-rule="evenodd" d="M53.0954 60.563L53.0962 60.5746C53.1334 61.1046 53.2487 61.6602 53.4341 62.2389C53.7561 63.2443 54.8322 63.7982 55.8376 63.4761L57.9041 62.8142C58.7874 62.5312 59.2741 61.5858 58.9911 60.7025C58.895 60.4025 58.8424 60.1579 58.8227 59.9633C58.8122 59.7803 58.8345 59.5872 58.8962 59.3804C58.9617 59.161 59.0763 58.898 59.2521 58.5887C59.4408 58.2557 59.697 57.8493 60.0231 57.369L60.0265 57.364C60.4673 56.7022 60.845 56.0861 61.1579 55.5162C61.4882 54.9135 61.7368 54.315 61.8966 53.7219C62.065 53.1096 62.1399 52.4865 62.1204 51.855L62.1203 51.8514C62.0968 51.2035 61.9659 50.5226 61.7383 49.812C61.4234 48.8289 60.9572 47.9857 60.3277 47.3016C59.7143 46.6202 58.9757 46.1076 58.1192 45.7676C57.2613 45.427 56.3149 45.2774 55.2913 45.3038C54.2634 45.3196 53.1835 45.5139 52.0553 45.8753C51.4447 46.0709 50.8436 46.3256 50.2522 46.6381C49.6671 46.9473 49.1022 47.2985 48.5577 47.6914C48.0248 48.0673 47.5184 48.4708 47.0386 48.9022C45.982 49.8376 46.0379 51.3985 46.9281 52.3663L47.0427 52.4909C48.1047 53.6454 49.8634 53.6589 51.0177 52.6968C51.2297 52.5201 51.4406 52.3502 51.6504 52.1871C52.3483 51.6493 53.0163 51.288 53.6538 51.0838C54.4009 50.8445 54.8783 50.8852 55.1814 51.0356L55.1894 51.0395C55.5456 51.2104 55.7883 51.4849 55.9269 51.9174C56.0372 52.2616 56.0891 52.553 56.0966 52.7965C56.104 53.0353 56.0704 53.2867 55.9893 53.5535C55.9021 53.8188 55.7637 54.1194 55.5654 54.4567C55.3564 54.812 55.0895 55.2297 54.7628 55.711C54.3707 56.293 54.0441 56.8506 53.7896 57.3789C53.5273 57.9058 53.3351 58.4364 53.2178 58.97L53.2166 58.9758C53.1071 59.4957 53.0669 60.0254 53.0954 60.563Z" fill="#E86B13"/>
<path fill-rule="evenodd" clip-rule="evenodd" d="M54.792 67.3893L54.7911 67.3998C54.753 67.8946 54.839 68.4241 55.0154 68.9747C55.1864 69.5085 55.4214 69.9772 55.7378 70.3551L55.7497 70.3689C56.0659 70.7268 56.4364 71.0049 56.8617 71.1883C57.2814 71.3693 57.727 71.4496 58.1899 71.4335C58.6416 71.4253 59.0923 71.3472 59.5401 71.2038C59.9682 71.0666 60.3611 70.8741 60.7142 70.6232C61.0979 70.3678 61.4122 70.0446 61.6475 69.6552C61.8871 69.2588 62.0271 68.8172 62.0765 68.3422C62.1286 67.8409 62.0525 67.3147 61.8798 66.7757C61.7023 66.2216 61.4569 65.7379 61.1221 65.3579C60.8027 64.9889 60.427 64.7045 59.9923 64.5293C59.5774 64.3621 59.1374 64.2899 58.6804 64.3063C58.254 64.3187 57.8275 64.3953 57.4027 64.5314C56.9588 64.6736 56.5486 64.8644 56.1756 65.1064L56.171 65.1093C55.7885 65.3618 55.4715 65.6767 55.2304 66.0547C54.9778 66.4509 54.8371 66.902 54.792 67.3893Z" fill="#E86B13"/>
</svg>

<svg width="146" height="146" fill="none" xmlns="http://www.w3.org/2000/svg"><mask id="a" maskUnits="userSpaceOnUse" x="0" y="0" width="146" height="146"><rect width="146" height="146" rx="73" fill="#fff"/></mask><g mask="url(#a)"><path d="M69 143.5c0 2.5-2.924 1.787-5.5 1.5-2.18-.243-4.498-.193-4.5-2.5-.005-5.204 9.995-4.184 10 1z" fill="#75C738"/><path d="M106.277 144.755c0 6.379-9.578 6.379-9.578 0 0-6.386 9.578-6.386 9.578 0z" fill="#93D65E"/><path d="M87 142.5c2 3-8.71 3.983-9 1.5-.57-4.893 7-4.5 9-1.5z" fill="#75C738"/><path d="M50.193 144.755c0 6.379-9.579 6.379-9.579 0 0-6.386 9.58-6.386 9.58 0zm8.388-9.58c.09 4.555-7.536 4.343-7.661 0-.197-4.638 7.43-4.554 7.661 0zm18.693.001c.106 4.604-7.52 4.468-7.655 0-.026-4.854 7.632-4.878 7.655 0zm18.699-.001c-.228 3.074-7.823 3.413-7.662 0 .057-4.817 7.738-4.719 7.662 0zm-56.09 0c.381 2.676-2.383 1.325-2.383 1.325s-6-3-5.5-5.5c1.5-4 7.5 1.5 7.882 4.175zm73.19-1.675c-1.144.889-6.073 5.331-6.073 1.5 0-3.605 4-4 5-3.5 1.5.5 1.819 1.42 1.073 2zm-64.607-5.979c0 4.083-5.466 3.479-6.124 0 0-4.083 5.658-4.021 6.124 0zm18.7 0c.165 3.521-6.131 4.083-6.131 0 0-3.521 5.965-3.521 6.13 0zm18.692 0c-.358 3.479-6.89 4.021-6.124 0s6.266-3.521 6.124 0zm18.699 0c0 3.479-6.057 4.562-6.057.479s6.057-4.562 6.057-.479zm-74.785 0c0 2.84-1.966 2.09-3.772.979-.79-.486-2.5-2.257-2.5-3.5 0-4.083 6.272-1.562 6.272 2.521zM122.5 125.5c.444.887-3.5 4-4.5 4s-1.038-1.148-.881-1.979c.381-2.021 4.381-4.021 5.381-2.021z" fill="#93D65E"/><path d="M38.507 121.389c0 3.271-4.9 3.271-4.9 0 0-3.265 4.9-3.265 4.9 0z" fill="#FAD95A"/><path d="M57.206 121.389c0 3.271-4.9 3.271-4.9 0 0-3.265 4.9-3.265 4.9 0zm18.694 0c0 3.271-4.9 3.271-4.9 0 0-3.265 4.9-3.265 4.9 0zm37.392 0c0 3.271-4.907 3.271-4.907 0 0-3.265 4.907-3.265 4.907 0z" fill="#93D65E"/><path d="M57.206 121.389c0 3.271-4.9 3.271-4.9 0 0-3.265 4.9-3.265 4.9 0z" fill="#FAD95A"/><path d="M75.9 121.389c0 3.271-4.9 3.271-4.9 0 0-3.265 4.9-3.265 4.9 0zm37.392 0c0 3.271-4.907 3.271-4.907 0 0-3.265 4.907-3.265 4.907 0z" fill="#93D65E"/><path d="M75.9 121.389c0 3.271-4.9 3.271-4.9 0 0-3.265 4.9-3.265 4.9 0zm-56.086 0C19.5 122.5 16 119.5 16 117.5c0-2.237 3.814.624 3.814 3.889z" fill="#FAD95A"/><path d="M113.292 121.389c0 3.271-4.907 3.271-4.907 0 0-3.265 4.907-3.265 4.907 0z" fill="#93D65E"/><path d="M94.593 121.389c0 3.271-4.593 3.111-4.9 0 0-3.265 4.307-3.389 4.9 0zm18.699 0c0 3.271-4.907 3.271-4.907 0 0-3.265 4.907-3.265 4.907 0zM129.5 119c0 .5-3 2.5-3.5 2s3.5-4 3.5-2z" fill="#FAD95A"/><path d="M28.667 116.49c0 2.617-3.926 2.617-3.926 0 0-2.611 3.926-2.611 3.926 0z" fill="#ACEB7C"/><path d="M47.366 116.49c0 2.617-3.926 2.617-3.926 0 0-2.611 3.926-2.611 3.926 0zm18.694 0c0 2.617-3.926 2.617-3.926 0 0-2.611 3.926-2.611 3.926 0zm18.692 0c0 2.617-3.919 2.617-3.919 0 0-2.611 3.92-2.611 3.92 0zm18.7 0c0 2.617-3.926 2.617-3.926 0 0-2.611 3.926-2.611 3.926 0zm18.692 0c0 2.617-3.926 2.617-3.926 0 0-2.611 3.926-2.611 3.926 0z" fill="#93D65E"/><path d="M47.366 116.49c0 2.617-3.926 2.617-3.926 0 0-2.611 3.926-2.611 3.926 0z" fill="#ACEB7C"/><path d="M66.06 116.49c0 2.617-3.926 2.617-3.926 0 0-2.611 3.926-2.611 3.926 0zm18.692 0c0 2.617-3.919 2.617-3.919 0 0-2.611 3.92-2.611 3.92 0zm18.7 0c0 2.617-3.926 2.617-3.926 0 0-2.611 3.926-2.611 3.926 0zm18.692 0c0 2.617-3.926 2.617-3.926 0 0-2.611 3.926-2.611 3.926 0zm18.693 0c0 2.617-3.919 2.617-3.919 0 0-2.611 3.919-2.611 3.919 0z" fill="#93D65E"/><path d="M66.06 116.49c0 2.617-3.926 2.617-3.926 0 0-2.611 3.926-2.611 3.926 0zm-56.086 0c0 2.617-3.926 2.617-3.926 0 0-2.611 3.926-2.611 3.926 0z" fill="#ACEB7C"/><path d="M84.752 116.49c0 2.617-3.919 2.617-3.919 0 0-2.611 3.92-2.611 3.92 0zm18.7 0c0 2.617-3.926 2.617-3.926 0 0-2.611 3.926-2.611 3.926 0zm18.692 0c0 2.617-3.926 2.617-3.926 0 0-2.611 3.926-2.611 3.926 0zm18.693 0c0 2.617-3.919 2.617-3.919 0 0-2.611 3.919-2.611 3.919 0z" fill="#93D65E"/><path d="M84.752 116.49c0 2.617-3.919 2.617-3.919 0 0-2.611 3.92-2.611 3.92 0zm18.7 0c0 2.617-3.926 2.617-3.926 0 0-2.611 3.926-2.611 3.926 0zm18.692 0c0 2.617-3.926 2.617-3.926 0 0-2.611 3.926-2.611 3.926 0zm18.693 0c0 2.617-3.919 2.617-3.919 0 0-2.611 3.919-2.611 3.919 0z" fill="#ACEB7C"/><path d="M18.833 112.57c0 2.094-3.134 2.094-3.134 0 0-2.093 3.134-2.093 3.134 0z" fill="#CCF0AD"/><path d="M37.532 112.57c0 2.094-3.14 2.094-3.14 0 0-2.093 3.14-2.093 3.14 0zm18.693 0c0 2.094-3.134 2.094-3.134 0 0-2.093 3.134-2.093 3.134 0zm18.7 0c0 2.094-3.14 2.094-3.14 0 0-2.093 3.14-2.093 3.14 0zm18.693 0c0 2.094-3.14 2.094-3.14 0 0-2.093 3.14-2.093 3.14 0zm18.699 0c0 2.094-3.14 2.094-3.14 0 0-2.093 3.14-2.093 3.14 0z" fill="#93D65E"/><path d="M37.532 112.57c0 2.094-3.14 2.094-3.14 0 0-2.093 3.14-2.093 3.14 0z" fill="#CCF0AD"/><path d="M56.225 112.57c0 2.094-3.134 2.094-3.134 0 0-2.093 3.134-2.093 3.134 0zm18.7 0c0 2.094-3.14 2.094-3.14 0 0-2.093 3.14-2.093 3.14 0zm18.693 0c0 2.094-3.14 2.094-3.14 0 0-2.093 3.14-2.093 3.14 0zm18.699 0c0 2.094-3.14 2.094-3.14 0 0-2.093 3.14-2.093 3.14 0zm18.693 0c0 2.094-3.141 2.094-3.141 0 0-2.093 3.141-2.093 3.141 0z" fill="#93D65E"/><path d="M56.225 112.57c0 2.094-3.134 2.094-3.134 0 0-2.093 3.134-2.093 3.134 0zm-56.084 0c0 2.094-3.141 2.094-3.141 0 0-2.093 3.14-2.093 3.14 0z" fill="#CCF0AD"/><path d="M74.925 112.57c0 2.094-3.14 2.094-3.14 0 0-2.093 3.14-2.093 3.14 0zm18.693 0c0 2.094-3.14 2.094-3.14 0 0-2.093 3.14-2.093 3.14 0zm18.699 0c0 2.094-3.14 2.094-3.14 0 0-2.093 3.14-2.093 3.14 0zm18.693 0c0 2.094-3.141 2.094-3.141 0 0-2.093 3.141-2.093 3.141 0z" fill="#93D65E"/><path d="M74.925 112.57c0 2.094-3.14 2.094-3.14 0 0-2.093 3.14-2.093 3.14 0zm18.693 0c0 2.094-3.14 2.094-3.14 0 0-2.093 3.14-2.093 3.14 0zm18.699 0c0 2.094-3.14 2.094-3.14 0 0-2.093 3.14-2.093 3.14 0zm18.693 0c0 2.094-3.141 2.094-3.141 0 0-2.093 3.141-2.093 3.141 0z" fill="#CCF0AD"/></g><path fill-rule="evenodd" clip-rule="evenodd" d="M61.688 32.35c6.688-2.956 14.06 2.458 13.241 9.723L71.873 69.19a6.416 6.416 0 0 1-1.977 3.951l-.082.079 6.42 8.931a3.36 3.36 0 0 1-4.049 5.053l-16.068-6.86-6.755.524a6.416 6.416 0 0 1-6.534-4.227l-8.165-22.726a9.471 9.471 0 0 1 5.084-11.865l21.941-9.7z" fill="#FAEFE6"/><path fill-rule="evenodd" clip-rule="evenodd" d="M71.241 82.343c-7.392-18.098 10.903-36.247 29.113-28.776 10.253 4.206 15.825 15.43 12.877 26.14-3.214 11.684-15.292 18.55-26.976 15.335l-.873-.24L68.5 98c-1.489.34-3.214.148-3.918-.851-.757-1.073-.402-2.361.418-3.649l6.241-11.157z" fill="#51B816"/><path fill-rule="evenodd" clip-rule="evenodd" d="M102.952 69.467a3.08 3.08 0 0 1-1.246 4.175L88.77 80.63a5.092 5.092 0 0 1-6.749-1.798L79.3 74.44a3.08 3.08 0 0 1 5.238-3.246l2.191 3.537 12.05-6.51a3.08 3.08 0 0 1 4.174 1.246z" fill="#fff"/><path fill-rule="evenodd" clip-rule="evenodd" d="M53.095 60.563l.001.012a7.11 7.11 0 0 0 .338 1.664 1.911 1.911 0 0 0 2.404 1.237l2.066-.662a1.68 1.68 0 0 0 1.087-2.111 3.708 3.708 0 0 1-.168-.74c-.01-.183.011-.376.073-.583.066-.219.18-.482.356-.791.189-.333.445-.74.771-1.22l.003-.005c.441-.662.819-1.278 1.132-1.848.33-.602.579-1.201.739-1.794a6.276 6.276 0 0 0 .223-1.867v-.004a7.616 7.616 0 0 0-.382-2.039c-.315-.983-.78-1.826-1.41-2.51a5.83 5.83 0 0 0-2.209-1.534c-.858-.341-1.804-.49-2.828-.464-1.028.016-2.107.21-3.236.571-.61.196-1.211.45-1.803.763-.585.31-1.15.66-1.694 1.053-.533.376-1.04.78-1.52 1.211-1.056.936-1 2.496-.11 3.464l.115.125c1.062 1.154 2.82 1.168 3.975.206.212-.177.423-.347.632-.51.698-.538 1.366-.899 2.004-1.103.747-.24 1.224-.199 1.527-.048l.008.003c.357.171.6.446.738.878.11.345.162.636.17.88a2.34 2.34 0 0 1-.108.757 4.72 4.72 0 0 1-.424.903c-.209.355-.475.773-.802 1.254-.392.582-.719 1.14-.973 1.668a6.892 6.892 0 0 0-.572 1.591l-.001.006c-.11.52-.15 1.05-.122 1.587zm1.697 6.826v.01c-.039.496.047 1.025.223 1.576.171.534.406 1.002.723 1.38l.012.014c.316.358.686.636 1.112.82.42.18.865.26 1.328.245a4.693 4.693 0 0 0 1.35-.23c.428-.137.821-.33 1.174-.58.384-.256.698-.58.934-.969.24-.396.38-.838.428-1.313.053-.501-.023-1.027-.196-1.566-.178-.554-.423-1.038-.758-1.418a2.957 2.957 0 0 0-1.13-.829 3.174 3.174 0 0 0-1.312-.223 4.617 4.617 0 0 0-1.277.225 5.104 5.104 0 0 0-1.227.575l-.005.003c-.383.253-.7.568-.94.946a2.958 2.958 0 0 0-.439 1.334z" fill="#E86B13"/></svg>
